X: 207
T: No_64_Alligator_Dance_Song_(a).krn
N: Derived from No_64_Alligator_Dance_Song_(a).krn
%%abc-version 2.0
%%abcx-abcm2ps-target-version 5.9.1 (29 Sep 2008)
%%abc-creator hum2abc beta
%%abcx-conversion-date 2019/03/15 08:38:45
%%humdrum-veritas 651861657
%%humdrum-veritas-data 2711718375
%%linebreak <none>
%%barnumbers 0
L: 1/8
M: 2/4
K: G clef=bass
[K:clef=bass][M:2/4]B,B, B,C ||  
[M:3/4]B,4A,G, | 
B,2A,A, G,G, ||  
[M:2/4]G,2z2 | 
E,E, E,A, | 
A,G,/G,/G,2 ||  
[M:3/4]B,2A,A, G,G, ||  
[M:2/4]G,2z2 | 
E,E, E,A, ||  
[M:3/4]A,G,/G,/G,4 :|]  
[M:2/4]A,G,/G,/G,2 ||  
B,2z2 ||  
[M:3/4](B,3G,)B,2 | 
B,4B,2 ||  
[M:2/4]B, z (B,A,) ||  
[M:3/4]B,4B,2 ||  
[M:2/4]B, z (B,A,) | 
B,4 | 
B,2B,2 | 
B,2z2 | 
B,2z2



